X:46
T:The Groom Jig
R:Jig
S:Mother and duaghter concertina duo
D:From RTE 'The Pure Drop'
M:6/8
Z:Bernie Stocks
K:G
|: cBA dcA | GEF G2B | cBA dcA | GED D2B | cAA dAA | cAG Add | 
fed (3eged |1 ^cAA A2B :|2 ^cAA A2d ||\
K:D
|: fgf fed | cAG Add | eaa age | 
edd d2e | faf fed | cAG Add | fed (3eged | cAA A2d :|
<end>
<start>
